packages/core/src/svgs/tokens/mono/ALCX.svg

<svg width="24" height="24" viewBox="0 0 24 24" fill="none" xmlns="http://www.w3.org/2000/svg">
<path fill-rule="evenodd" clip-rule="evenodd" d="M12 22C13.3133 22 14.6136 21.7414 15.8269 21.2388C17.0401 20.7362 18.1425 19.9997 19.0711 19.0711C19.9997 18.1425 20.7362 17.0401 21.2388 15.8269C21.7414 14.6136 22 13.3133 22 12C22 10.6868 21.7414 9.38643 21.2388 8.17318C20.7362 6.95992 19.9997 5.85752 19.0711 4.92895C18.1425 4.00036 17.0401 3.26376 15.8269 2.76121C14.6136 2.25866 13.3133 2 12 2C9.34784 2 6.80431 3.05358 4.92895 4.92895C3.05358 6.80431 2 9.34784 2 12C2 14.6522 3.05358 17.1957 4.92895 19.0711C6.80431 20.9465 9.34784 22 12 22ZM12 21.4444C14.5048 21.4444 16.9071 20.4494 18.6782 18.6782C20.4494 16.9071 21.4444 14.5048 21.4444 12C21.4444 9.49514 20.4494 7.09296 18.6782 5.32177C16.9071 3.5506 14.5048 2.55557 12 2.55557C9.49514 2.55557 7.09296 3.5506 5.32177 5.32177C3.5506 7.09296 2.55557 9.49514 2.55557 12C2.55557 14.5048 3.5506 16.9071 5.32177 18.6782C7.09296 20.4494 9.49514 21.4444 12 21.4444Z" fill="white"/>
<path d="M11.7605 4.35007V2.46118H12.3161V4.35007L18.6661 9.40563V14.4445L17.5938 15.3335L18.8661 17.5556H14.7661L12.0439 19.8001L9.23276 17.5556H5.33276L6.49943 15.3834L5.33276 14.4445V9.40008L11.7605 4.34452V4.35007ZM12.0383 4.83341L6.055 9.54446L8.53276 11.5334L12.0439 5.60007L15.4717 11.6167L17.9494 9.54446L12.0383 4.83341ZM18.1105 10.1334L15.755 12.1057L17.3162 14.8501L18.1105 14.1834V10.1334ZM8.9661 11.8834L12.3161 14.5779V17.0001H17.9105L12.0327 6.70562L8.9661 11.8834ZM12.3161 17.5556V18.8556L13.8939 17.5556H12.3161ZM11.7605 18.8668V14.8445L5.88832 10.1224V14.1834L11.7605 18.8668ZM6.94388 15.7334L6.26055 17.0001H8.54389L6.94388 15.7334Z" fill="white"/>
</svg>

<svg xmlns="http://www.w3.org/2000/svg" width="24" height="24" fill="none" viewBox="0 0 24 24">
    <path fill="#fff" fill-rule="evenodd" d="M12 22a10 10 0 1 0 0-19.998A10 10 0 0 0 12 22m0-.556a9.444 9.444 0 1 0 0-18.888 9.444 9.444 0 0 0 0 18.888" clip-rule="evenodd"/>
    <path fill="#fff" d="M11.76 4.35V2.461h.556v1.89l6.35 5.055v5.038l-1.072.89 1.272 2.222h-4.1L12.044 19.8l-2.811-2.244h-3.9l1.166-2.173-1.166-.938V9.4l6.428-5.055zm.278.483L6.055 9.544l2.478 1.99 3.51-5.934 3.429 6.017 2.477-2.073zm6.072 5.3-2.355 1.973 1.561 2.744.794-.667zm-9.144 1.75 3.35 2.695V17h5.594L12.034 6.706zm3.35 5.673v1.3l1.578-1.3zm-.556 1.31v-4.021l-5.872-4.723v4.061zm-4.816-3.133L6.26 17h2.283z"/>
</svg>
